docs/.gitbook/assets/chain-icons/rootstock.svg

<svg xmlns="http://www.w3.org/2000/svg" width="903" height="1000" fill="none"><path fill="#FF931E" d="M451.431 274.852c75.898 0 137.426-61.528 137.426-137.426S527.329 0 451.431 0c-75.899 0-137.426 61.528-137.426 137.426s61.527 137.426 137.426 137.426Z"/><path fill="#FF931E" d="M833.544 562.252c-65.768-37.911-149.789-15.334-187.701 50.434-13.052 22.63-18.916 47.41-18.359 71.738 1.38 60.568-53.086 92.086-104.873 60.807a131.735 131.735 0 0 0-6.261-3.608c-52.371-29.237-52.344-91.503.053-120.712 42.899-23.241 72.056-68.687 72.056-120.898 0-1.061-.053-2.096-.08-3.131l.053.08c-1.353-60.648 53.246-92.139 105.086-60.621 41.52 25.203 95.164 27.564 140.185 1.538 65.715-37.964 88.213-122.038 50.248-187.753-37.964-65.716-122.038-88.213-187.753-50.248-44.996 25.999-69.695 73.568-68.66 122.091 1.353 60.515-53.061 92.007-104.794 60.781-20.88-12.788-45.394-20.163-71.658-20.163-26.265 0-50.779 7.375-71.632 20.136-51.627 31.12-105.881-.318-104.502-60.701 1.061-48.629-23.771-96.304-68.899-122.277-65.794-37.832-149.815-15.175-187.647 50.619-37.832 65.795-15.175 149.816 50.62 187.648 44.968 25.867 98.453 23.453 139.893-1.671 51.707-31.386 106.173.079 104.794 60.568l.053-.08c0 1.061-.08 2.123-.08 3.21 0 52.238 29.13 97.658 72.056 120.898 52.423 29.236 52.397 91.582-.053 120.765-2.122 1.141-4.192 2.361-6.235 3.608-51.627 31.067-105.855-.398-104.475-60.78.583-24.434-5.333-49.346-18.465-72.056-38.044-65.689-122.118-88.08-187.807-50.062-65.821 38.017-88.213 122.091-50.195 187.78 38.044 65.688 122.118 88.08 187.807 50.062.849-.504 1.671-1.034 2.52-1.539l-.079.107c51.76-31.412 106.226.079 104.82 60.594l.053-.079c0 1.114-.079 2.255-.079 3.369.079 75.903 61.656 137.374 137.558 137.294 75.903-.08 137.373-61.657 137.294-137.559 0-1.008-.053-2.016-.08-3.025l.053.08c-1.379-60.674 53.246-92.192 105.112-60.674l-.079-.133c.955.584 1.857 1.167 2.812 1.724 65.768 37.912 149.789 15.335 187.701-50.433 37.911-65.769 15.334-149.789-50.434-187.701l.053-.027Z"/></svg>

<svg width="903" height="1000" viewBox="0 0 903 1000" fill="none" xmlns="http://www.w3.org/2000/svg">
<path d="M451.431 274.852C527.329 274.852 588.857 213.324 588.857 137.426C588.857 61.5277 527.329 0 451.431 0C375.532 0 314.005 61.5277 314.005 137.426C314.005 213.324 375.532 274.852 451.431 274.852Z" fill="#FF931E"/>
<path d="M833.544 562.252C767.776 524.341 683.755 546.918 645.843 612.686C632.791 635.316 626.927 660.096 627.484 684.424C628.864 744.992 574.398 776.51 522.611 745.231C520.568 743.984 518.472 742.763 516.35 741.623C463.979 712.386 464.006 650.12 516.403 620.911C559.302 597.67 588.459 552.224 588.459 500.013C588.459 498.952 588.406 497.917 588.379 496.882L588.432 496.962C587.079 436.314 641.678 404.823 693.518 436.341C735.038 461.544 788.682 463.905 833.703 437.879C899.418 399.915 921.916 315.841 883.951 250.126C845.987 184.41 761.913 161.913 696.198 199.878C651.202 225.877 626.503 273.446 627.538 321.969C628.891 382.484 574.477 413.976 522.744 382.75C501.864 369.962 477.35 362.587 451.086 362.587C424.821 362.587 400.307 369.962 379.454 382.723C327.827 413.843 273.573 382.405 274.952 322.022C276.013 273.393 251.181 225.718 206.053 199.745C140.259 161.913 56.2379 184.57 18.4059 250.364C-19.4261 316.159 3.23068 400.18 69.0254 438.012C113.994 463.879 167.479 461.465 208.919 436.341C260.626 404.955 315.092 436.42 313.713 496.909L313.766 496.829C313.766 497.89 313.686 498.952 313.686 500.039C313.686 552.277 342.816 597.697 385.742 620.937C438.165 650.173 438.139 712.519 385.689 741.702C383.567 742.843 381.497 744.063 379.454 745.31C327.827 776.377 273.599 744.912 274.979 684.53C275.562 660.096 269.646 635.184 256.514 612.474C218.47 546.785 134.396 524.394 68.707 562.412C2.88578 600.429 -19.5056 684.503 18.512 750.192C56.5562 815.88 140.63 838.272 206.319 800.254C207.168 799.75 207.99 799.22 208.839 798.715L208.76 798.822C260.52 767.41 314.986 798.901 313.58 859.416L313.633 859.337C313.633 860.451 313.554 861.592 313.554 862.706C313.633 938.609 375.21 1000.08 451.112 1000C527.015 999.92 588.485 938.343 588.406 862.441C588.406 861.433 588.353 860.425 588.326 859.416L588.379 859.496C587 798.822 641.625 767.304 693.491 798.822L693.412 798.689C694.367 799.273 695.269 799.856 696.224 800.413C761.992 838.325 846.013 815.748 883.925 749.98C921.836 684.211 899.259 600.191 833.491 562.279L833.544 562.252Z" fill="#FF931E"/>
</svg>
